dist/svgs/crypto-icons/icons/lbc.svg

<?xml version="1.0" encoding="UTF-8" standalone="yes"?>
<svg xmlns="http://www.w3.org/2000/svg" xmlns:xlink="http://www.w3.org/1999/xlink" width="512px" height="512px" viewBox="0 0 384 384" version="1.1">
  <g id="surface1">
    <path style=" stroke:none;fill-rule:nonzero;fill:rgb(0%,0%,0%);fill-opacity:1;" d="M 341.710938 191.492188 L 338.664062 208.410156 L 350.503906 210.609375 L 186.078125 312.105469 L 17.085938 228.199219 L 17.085938 181.851562 L 196.566406 71.386719 L 356.425781 148.355469 L 356.425781 151.402344 L 186.078125 255.945312 L 57.683594 193.523438 L 57.683594 212.46875 L 186.925781 275.398438 L 373.511719 160.875 L 373.511719 137.53125 L 195.550781 51.933594 L 0 172.207031 L 0 238.859375 L 186.925781 331.558594 L 362.347656 223.296875 L 359.980469 238.6875 L 376.726562 241.394531 L 383.660156 199.441406 Z M 341.710938 191.492188 "/>
  </g>
</svg>

<svg xmlns="http://www.w3.org/2000/svg" viewBox="0 0 384 384"><path d="M341.71 191.492l-3.046 16.918 11.84 2.2-164.426 101.495L17.086 228.2v-46.347l179.48-110.465 159.86 76.968v3.047L186.078 255.945 57.684 193.523v18.946l129.242 62.93 186.586-114.524v-23.344L195.55 51.934 0 172.207v66.652l186.926 92.7 175.422-108.262-2.368 15.39 16.747 2.708 6.933-41.954zm0 0"/></svg>
